images/tokens/jkl.svg

<?xml version="1.0" encoding="UTF-8" standalone="no"?>
<svg
   width="270"
   height="270"
   viewBox="0 0 270 269.99999"
   fill="none"
   version="1.1"
   id="svg4"
   sodipodi:docname="jkl.svg"
   inkscape:version="1.2.1 (9c6d41e, 2022-07-14)"
   xmlns:inkscape="http://www.inkscape.org/namespaces/inkscape"
   xmlns:sodipodi="http://sodipodi.sourceforge.net/DTD/sodipodi-0.dtd"
   xmlns:xlink="http://www.w3.org/1999/xlink"
   xmlns="http://www.w3.org/2000/svg"
   xmlns:svg="http://www.w3.org/2000/svg">
  <defs
     id="defs8">
    <linearGradient
       inkscape:collect="always"
       id="linearGradient3908">
      <stop
         style="stop-color:#032963;stop-opacity:1;"
         offset="0"
         id="stop3904" />
      <stop
         style="stop-color:#040d21;stop-opacity:1;"
         offset="0.60450161"
         id="stop3906" />
    </linearGradient>
    <linearGradient
       inkscape:collect="always"
       xlink:href="#linearGradient3908"
       id="linearGradient3910"
       x1="0"
       y1="140"
       x2="280"
       y2="140"
       gradientUnits="userSpaceOnUse"
       gradientTransform="matrix(0.96428571,0,0,0.96428571,55.830614,-129.19704)" />
  </defs>
  <sodipodi:namedview
     id="namedview6"
     pagecolor="#ffffff"
     bordercolor="#000000"
     borderopacity="0.25"
     inkscape:showpageshadow="2"
     inkscape:pageopacity="0"
     inkscape:pagecheckerboard="0"
     inkscape:deskcolor="#d1d1d1"
     showgrid="false"
     inkscape:zoom="1.8422828"
     inkscape:cx="161.75584"
     inkscape:cy="142.48627"
     inkscape:window-width="1369"
     inkscape:window-height="847"
     inkscape:window-x="71"
     inkscape:window-y="25"
     inkscape:window-maximized="0"
     inkscape:current-layer="svg4" />
  <circle
     style="fill:url(#linearGradient3910);fill-opacity:1;stroke-width:0.964286"
     id="path298"
     cx="190.83063"
     cy="5.8029571"
     r="135"
     transform="rotate(43.258232)" />
  <path
     fill-rule="evenodd"
     clip-rule="evenodd"
     d="m 60.471833,39.999995 c 0,0 43.822567,25.44546 58.127217,54.416523 5.19956,-1.428582 10.66384,-2.206285 16.23549,-2.206285 5.67589,0 11.24005,0.806935 16.5267,2.287247 14.26282,-29.004639 58.16687,-54.497485 58.16687,-54.497485 1.55285,16.534009 0.10143,56.22019 -17.22275,89.416215 -1.00228,-1.71989 -1.96875,-3.32728 -2.93438,-4.86793 5.76052,-11.89987 7.4412,-19.5704 7.58183,-34.202134 -3.32131,13.281224 -5.26024,20.757444 -11.3344,28.565194 -3.73551,-5.2696 -8.07871,-10.41579 -14.79036,-17.65526 l 0.006,-0.19133 c 2.23125,-13.539626 5.65483,-21.693325 12.79944,-36.505062 -13.96621,16.37864 -20.63781,29.667361 -20.43753,41.509442 l -0.1142,-0.11062 c 0.0894,6.70865 2.38041,12.9525 6.79858,19.02869 l 0.84205,-6.36879 3.81137,2.33004 c -0.47301,-1.43685 -0.94773,-2.63396 -1.39262,-3.75896 -0.48067,-1.21661 -0.92896,-2.34877 -1.30738,-3.60852 0.0494,0.0417 0.0997,0.0833 0.15,0.12494 -0.0128,-0.0416 -0.0256,-0.0833 -0.0383,-0.12494 5.47671,4.54858 10.40115,9.74472 18.67589,18.95115 l -0.10995,0.19432 -0.10738,-0.10483 c 0.3946,2.13579 0.6,4.30653 0.6,6.50199 0,3.54034 -0.53438,7.97557 -1.53495,12.98011 1.56904,0.90852 3.11591,2.15284 4.12161,4.1071 -2.12132,0.0358 -3.58468,0.21222 -5.2023,0.77046 -0.0571,0.23692 -0.11505,0.47471 -0.17386,0.71421 5.74433,5.54744 8.34974,9.48238 12.09804,16.84517 -5.89518,-4.90397 -9.62303,-7.93637 -13.82901,-10.44546 -0.1892,0.64773 -0.38352,1.29971 -0.58381,1.95511 3.23099,5.71365 3.8557,9.92558 2.377,17.1895 -2.77842,-2.40426 -4.77786,-4.09347 -6.55484,-5.03182 -1.30483,3.42103 -2.72814,6.8642 -4.25712,10.26818 -1.02698,0.99204 -1.85113,2.06932 -2.6659,3.13296 -2.18098,2.85 -4.29461,5.61136 -10.04406,6.42614 0.30937,7.87329 -1.43182,11.3233 -3.28296,14.99233 -0.92814,1.83835 -1.88353,3.7321 -2.62245,6.26421 -1.45824,1.70369 -2.94716,3.28977 -4.46166,4.73949 -9.36948,4.6892 -9.8574,4.45738 -18.60744,0.30937 l -1.0945,-0.51903 c -9.81044,4.64062 -10.51697,4.88863 -18.83721,0.74403 -1.98895,-1.84943 -3.93376,-3.9375 -5.82436,-6.21903 -0.68948,-2.07273 -1.51883,-3.71677 -2.32731,-5.31904 -1.85182,-3.66903 -3.59233,-7.11904 -3.28347,-14.99233 -5.749189,-0.81478 -7.862909,-3.57614 -10.044309,-6.42614 -0.546137,-0.71336 -1.096536,-1.43182 -1.709237,-2.12727 -1.683412,-3.68865 -3.24316,-7.42842 -4.663474,-11.14432 -1.789434,0.93323 -3.800291,2.63096 -6.604018,5.05823 -1.48381,-7.28778 -0.850144,-11.50312 2.408101,-17.24574 -0.197301,-0.64433 -0.389488,-1.28523 -0.576308,-1.92273 -4.22174,2.51335 -7.954446,5.54916 -13.86778,10.46933 3.754694,-7.37643 6.363164,-11.31308 12.129822,-16.87587 -0.05548,-0.22414 -0.110198,-0.44658 -0.164062,-0.66902 -1.63381,-0.57018 -3.10458,-0.74916 -5.244044,-0.78581 1.011905,-1.96533 2.571312,-3.21306 4.150491,-4.12244 -1.01932,-5.0625 -1.563498,-9.54716 -1.563498,-13.11988 0,-2.17926 0.202416,-4.33551 0.591565,-6.45597 8.348196,-9.29089 13.29437,-14.51558 18.797242,-19.08666 -0.37875,1.25975 -0.8267,2.39191 -1.30789,3.6081 -0.44515,1.12509 -0.91876,2.32219 -1.39253,3.75938 l 3.81154,-2.33046 0.842549,6.36921 c 12.19698,-16.77673 8.18686,-34.828217 -13.640902,-60.427427 7.143848,14.811652 10.567943,22.965688 12.798693,36.504977 l 0.007,0.19133 c -6.71158,7.23947 -11.055366,12.38566 -14.791055,17.65526 -6.073904,-7.80775 -8.012742,-15.28397 -11.334226,-28.565194 0.140796,14.631724 1.821992,22.302264 7.582344,34.202134 -0.965627,1.5398 -1.931594,3.1472 -2.93404,4.86708 C 60.371211,96.219415 58.918949,56.533834 60.471833,39.999995 Z m 58.956237,123.666505 -4.97482,-9.32046 -13.96238,-2.48523 c 0.60921,9.86847 7.22183,13.66961 18.9372,11.80569 z m 37.71415,-9.32046 -4.97472,9.32046 c 11.71536,1.86392 18.32731,-1.93722 18.93669,-11.80569 z m -31.24412,48.577 c -2.17039,1.48722 -3.51017,3.52756 -3.51017,5.78012 0,4.54688 5.46077,8.2321 12.19698,8.2321 6.73595,0 12.19708,-3.68522 12.19708,-8.2321 0,-2.36933 -1.48297,-4.50512 -3.85621,-6.00683 -2.40487,0.93835 -5.47595,1.50171 -8.82215,1.50171 -3.06649,0 -5.90225,-0.47301 -8.20553,-1.275 z"
     fill="#040d21"
     id="path2"
     style="fill:#ffffff;fill-opacity:1;stroke-width:0.852273" />
</svg>

<svg width="270" height="270" viewBox="0 0 270 270" fill="none" xmlns="http://www.w3.org/2000/svg">
<g clip-path="url(#clip0_1323_486)">
<path d="M42.4861 233.317C96.785 284.411 182.223 281.813 233.317 227.514C284.411 173.215 281.813 87.7772 227.514 36.6833C173.215 -14.4107 87.7772 -11.8126 36.6832 42.4862C-14.4108 96.7851 -11.8127 182.223 42.4861 233.317Z" fill="url(#paint0_linear_1323_486)"/>
<path fill-rule="evenodd" clip-rule="evenodd" d="M60.4718 40C60.4718 40 104.294 65.4455 118.599 94.4165C123.799 92.9879 129.263 92.2102 134.835 92.2102C140.51 92.2102 146.075 93.0172 151.361 94.4975C165.624 65.4928 209.528 40 209.528 40C211.081 56.534 209.63 96.2202 192.305 129.416C191.303 127.696 190.337 126.089 189.371 124.548C195.132 112.648 196.812 104.978 196.953 90.3461C193.631 103.627 191.693 111.104 185.618 118.911C181.883 113.642 177.54 108.496 170.828 101.256L170.834 101.065C173.065 87.5251 176.489 79.3714 183.633 64.5597C169.667 80.9383 162.996 94.2271 163.196 106.069L163.082 105.959C163.171 112.667 165.462 118.911 169.88 124.987L170.722 118.618L174.534 120.948C174.061 119.512 173.586 118.314 173.141 117.189C172.66 115.973 172.212 114.841 171.834 113.581C171.883 113.623 171.933 113.664 171.984 113.706C171.971 113.664 171.958 113.623 171.945 113.581C177.422 118.13 182.347 123.326 190.621 132.532L190.511 132.726L190.404 132.622C190.799 134.757 191.004 136.928 191.004 139.124C191.004 142.664 190.47 147.099 189.469 152.104C191.038 153.012 192.585 154.257 193.591 156.211C191.469 156.247 190.006 156.423 188.388 156.981C188.331 157.218 188.273 157.456 188.215 157.695C193.959 163.243 196.564 167.178 200.313 174.541C194.417 169.637 190.69 166.604 186.484 164.095C186.294 164.743 186.1 165.395 185.9 166.05C189.131 171.764 189.755 175.976 188.277 183.24C185.498 180.836 183.499 179.146 181.722 178.208C180.417 181.629 178.994 185.072 177.465 188.476C176.438 189.468 175.614 190.545 174.799 191.609C172.618 194.459 170.504 197.22 164.755 198.035C165.064 205.909 163.323 209.359 161.472 213.028C160.544 214.866 159.588 216.76 158.849 219.292C157.391 220.995 155.902 222.582 154.388 224.031C145.018 228.72 144.53 228.489 135.78 224.341L134.686 223.822C124.875 228.462 124.169 228.71 115.849 224.566C113.86 222.716 111.915 220.628 110.024 218.347C109.335 216.274 108.505 214.63 107.697 213.028C105.845 209.359 104.105 205.909 104.413 198.035C98.6643 197.22 96.5505 194.459 94.3691 191.609C93.823 190.896 93.2726 190.177 92.6599 189.482C90.9765 185.793 89.4167 182.053 87.9964 178.338C86.207 179.271 84.1961 180.968 81.3924 183.396C79.9086 176.108 80.5423 171.893 83.8005 166.15C83.6032 165.506 83.411 164.865 83.2242 164.227C79.0025 166.741 75.2698 169.776 69.3564 174.697C73.1111 167.32 75.7196 163.384 81.4863 157.821C81.4308 157.597 81.3761 157.374 81.3222 157.152C79.6884 156.582 78.2176 156.403 76.0781 156.366C77.09 154.401 78.6495 153.153 80.2286 152.243C79.2093 147.181 78.6651 142.696 78.6651 139.124C78.6651 136.944 78.8676 134.788 79.2567 132.668C87.6049 123.377 92.5511 118.152 98.0539 113.581C97.6752 114.841 97.2272 115.973 96.7461 117.189C96.3009 118.314 95.8273 119.511 95.3535 120.948L99.1651 118.618L100.008 124.987C112.205 108.21 108.194 90.159 86.3667 64.5598C93.5106 79.3714 96.9347 87.5255 99.1654 101.065L99.1724 101.256C92.4608 108.496 88.117 113.642 84.3814 118.911C78.3074 111.104 76.3686 103.627 73.0471 90.3461C73.1879 104.978 74.8691 112.648 80.6295 124.548C79.6638 126.088 78.6979 127.695 77.6954 129.415C60.3712 96.2194 58.9189 56.5338 60.4718 40ZM119.428 163.667L114.453 154.346L100.491 151.861C101.1 161.729 107.713 165.53 119.428 163.667ZM157.142 154.346L152.167 163.667C163.883 165.53 170.495 161.729 171.104 151.861L157.142 154.346ZM125.898 202.923C123.728 204.41 122.388 206.451 122.388 208.703C122.388 213.25 127.849 216.935 134.585 216.935C141.321 216.935 146.782 213.25 146.782 208.703C146.782 206.334 145.299 204.198 142.926 202.696C140.521 203.635 137.45 204.198 134.104 204.198C131.037 204.198 128.201 203.725 125.898 202.923Z" fill="white"/>
</g>
<defs>
<linearGradient id="paint0_linear_1323_486" x1="36.6832" y1="42.4862" x2="233.317" y2="227.514" gradientUnits="userSpaceOnUse">
<stop offset="0.604502" stop-color="#040D21"/>
</linearGradient>
<clipPath id="clip0_1323_486">
<rect width="270" height="270" fill="white"/>
</clipPath>
</defs>
</svg>
